Newaita-dark/apps/24/gnome-2048.svg

<svg height="24" viewBox="0 0 24 24" width="24" xmlns="http://www.w3.org/2000/svg" xmlns:xlink="http://www.w3.org/1999/xlink"><linearGradient id="a" gradientUnits="userSpaceOnUse" x1="11.90739" x2="11.90739" y1="20.60281425" y2="21.59509725002"><stop offset="0" stop-opacity=".27451"/><stop offset="1" stop-opacity="0"/></linearGradient><linearGradient id="b"><stop offset="0" stop-opacity=".313726"/><stop offset=".222222" stop-opacity=".27451"/><stop offset="1" stop-opacity="0"/></linearGradient><radialGradient id="c" cx="450.908936" cy="189.579361" gradientTransform="matrix(.00000013 -.0585994 -.105479 -.00000008 38.601845 47.273862)" gradientUnits="userSpaceOnUse" r="21.166656" xlink:href="#b"/><radialGradient id="d" cx="450.908936" cy="189.579361" gradientTransform="matrix(-.00000013 .0585994 .105479 .00000008 -14.787073 -6.068247)" gradientUnits="userSpaceOnUse" r="21.166656" xlink:href="#b"/><radialGradient id="e" cx="450.908936" cy="189.579361" gradientTransform="matrix(-.00000013 -.0585994 .105479 -.00000008 -14.787073 47.273862)" gradientUnits="userSpaceOnUse" r="21.166656" xlink:href="#b"/><radialGradient id="f" cx="450.908936" cy="189.579361" gradientTransform="matrix(.00000013 .0585994 -.105479 .00000008 38.601843 -6.068247)" gradientUnits="userSpaceOnUse" r="21.166656" xlink:href="#b"/><linearGradient id="g"><stop offset="0" stop-color="#e0e0e0"/><stop offset="1" stop-color="#eee"/></linearGradient><linearGradient id="h" gradientUnits="userSpaceOnUse" x1="5.9536965" x2="5.9536965" xlink:href="#g" y1="8.62191484375" y2="2.66821862502"/><linearGradient id="i" gradientUnits="userSpaceOnUse" x1="17.8610895" x2="17.8610895" y1="8.62191484375" y2="2.66821862502"><stop offset="0" stop-color="#9ccc65"/><stop offset="1" stop-color="#aed581"/></linearGradient><linearGradient id="j" gradientUnits="userSpaceOnUse" x1="5.9536965" x2="5.9536965" xlink:href="#g" y1="20.52930812502" y2="14.57561124999"/><linearGradient id="k" gradientUnits="userSpaceOnUse" x1="5.9536965" x2="5.9536965" xlink:href="#g" y1="14.57561224999" y2="8.62191584375"/><linearGradient id="l" gradientUnits="userSpaceOnUse" x1="17.8610895" x2="17.8610895" y1="20.52930812502" y2="14.57561124999"><stop offset="0" stop-color="#ff7043"/><stop offset="1" stop-color="#ff8a65"/></linearGradient><linearGradient id="m" gradientUnits="userSpaceOnUse" x1="17.8610895" x2="17.8610895" y1="14.57561224999" y2="8.62191584375"><stop offset="0" stop-color="#29b6f6"/><stop offset="1" stop-color="#4fc3f7"/></linearGradient><linearGradient id="n" gradientUnits="userSpaceOnUse" x1="11.907393" x2="11.907393" y1="14.57561224999" y2="8.62191584375"><stop offset="0" stop-color="#ffa726"/><stop offset="1" stop-color="#ffb74d"/></linearGradient><linearGradient id="o" gradientUnits="userSpaceOnUse" x1="11.907393" x2="11.907393" y1="20.52930912502" y2="14.57561224999"><stop offset="0" stop-color="#ef5350"/><stop offset="1" stop-color="#e57373"/></linearGradient><linearGradient id="p" gradientUnits="userSpaceOnUse" x1="11.907393" x2="11.907393" xlink:href="#g" y1="8.62191584375" y2="2.66821962502"/><path d="m4.960938 20.566406h13.890624v1.066406h-13.890624zm0 0" fill="url(#a)"/><path d="m18.851562 20.601562h1.988282v-.992187h-1.988282zm0 0" fill="url(#c)"/><path d="m4.960938 20.601562h-1.984376v.992188h1.984376zm0 0" fill="url(#d)"/><path d="m4.960938 20.601562h-1.984376v-.992187h1.984376zm0 0" fill="url(#e)"/><path d="m18.851562 20.601562h1.988282v.992188h-1.988282zm0 0" fill="url(#f)"/><path d="m3.96875 2.667969c-.550781 0-.992188.441406-.992188.992187v4.960938h5.953126v-5.953125zm0 0" fill="url(#h)"/><path d="m14.882812 2.667969v5.953125h5.957032v-4.960938c0-.550781-.445313-.992187-.996094-.992187zm0 0" fill="url(#i)"/><path d="m2.976562 14.574219v4.960937c0 .550782.441407.992188.992188.992188h4.960938v-5.953125zm0 0" fill="url(#j)"/><path d="m2.976562 8.621094h5.953126v5.953125h-5.953126zm0 0" fill="url(#k)"/><path d="m14.882812 14.574219v5.953125h4.960938c.550781 0 .996094-.441406.996094-.992188v-4.960937zm0 0" fill="url(#l)"/><path d="m14.882812 8.621094h5.957032v5.953125h-5.957032zm0 0" fill="url(#m)"/><path d="m8.929688 8.621094h5.953124v5.953125h-5.953124zm0 0" fill="url(#n)"/><path d="m8.929688 14.574219h5.953124v5.957031h-5.953124zm0 0" fill="url(#o)"/><path d="m8.929688 2.667969h5.953124v5.953125h-5.953124zm0 0" fill="url(#p)"/><path d="m3.96875 2.667969c-.550781 0-.992188.441406-.992188.992187v.136719c0-.550781.441407-.992187.992188-.992187h15.875c.550781 0 .996094.441406.996094.992187v-.136719c0-.550781-.445313-.992187-.996094-.992187zm0 0" fill="#fff" fill-opacity=".784314"/><path d="m3.96875 20.539062c-.550781 0-.992188-.441406-.992188-.992187v-.132813c0 .546876.441407.992188.992188.992188h15.875c.550781 0 .996094-.445312.996094-.992188v.132813c0 .550781-.445313.992187-.996094.992187zm0 0" fill-opacity=".235294"/><g fill="#fff"><path d="m2.976562 8.621094v.25h5.953126v-.25zm0 0"/><path d="m3.96875 2.667969c-.550781 0-.992188.441406-.992188.992187v.25c0-.550781.441407-.992187.992188-.992187h4.960938v-.25zm0 0"/><path d="m14.882812 2.667969v.25h4.960938c.550781 0 .996094.441406.996094.992187v-.25c0-.550781-.445313-.992187-.996094-.992187zm0 0" fill-opacity=".588235"/><path d="m2.976562 14.574219v.25h5.953126v-.25zm0 0" fill-opacity=".980645"/><path d="m14.882812 14.574219v.25h5.957032v-.25zm0 0" fill-opacity=".392157"/><path d="m14.882812 8.621094v.25h5.957032v-.25zm0 0" fill-opacity=".392157"/><path d="m8.929688 8.621094v.25h5.953124v-.25zm0 0" fill-opacity=".784314"/><path d="m8.929688 14.574219v.25h5.953124v-.25zm0 0" fill-opacity=".392157"/><path d="m8.929688 2.667969v.25h5.953124v-.25zm0 0"/></g><path d="m2.976562 14.328125v.246094h5.953126v-.246094zm0 0" fill-opacity=".235294"/><path d="m2.976562 8.375v.246094h5.953126v-.246094zm0 0" fill-opacity=".235294"/><path d="m14.882812 8.375v.246094h5.957032v-.246094zm0 0" fill-opacity=".235294"/><path d="m2.976562 19.289062v.246094c0 .550782.441407.992188.992188.992188h4.960938v-.246094h-4.960938c-.550781 0-.992188-.441406-.992188-.992188zm0 0" fill-opacity=".235294"/><path d="m20.839844 19.289062c0 .550782-.445313.992188-.996094.992188h-4.960938v.246094h4.960938c.550781 0 .996094-.441406.996094-.992188zm0 0" fill-opacity=".235294"/><path d="m14.882812 14.328125v.246094h5.957032v-.246094zm0 0" fill-opacity=".235294"/><path d="m8.929688 14.328125v.246094h5.953124v-.246094zm0 0" fill-opacity=".235294"/><path d="m8.929688 20.28125v.246094h5.953124v-.246094zm0 0" fill-opacity=".235294"/><path d="m8.929688 8.375v.246094h5.953124v-.246094zm0 0" fill-opacity=".235294"/><path d="m3.96875 2.597656c-.585938 0-1.0625.476563-1.0625 1.0625v15.875c0 .589844.476562 1.066406 1.0625 1.066406h5.03125v-.003906h10.84375c.589844 0 1.066406-.472656 1.066406-1.0625v-15.875c0-.585937-.476562-1.0625-1.066406-1.0625zm5.03125.140625h5.8125v5.8125h-5.8125zm-5.03125 0h4.890625v5.8125h-5.8125v-4.890625c0-.511718.410156-.921875.921875-.921875zm10.984375 0h4.890625c.515625 0 .925781.410157.925781.921875v4.890625h-5.816406zm-5.953125 5.953125h5.8125v5.8125h-5.8125zm-5.953125 0h5.8125v5.8125h-5.8125zm11.90625 0h5.816406v5.8125h-5.816406zm-5.953125 5.953125h5.8125v5.8125h-5.8125zm5.953125 0h5.816406v4.890625c0 .515625-.410156.921875-.925781.921875h-4.890625zm-11.90625 0h5.8125v5.8125h-4.890625c-.511719 0-.921875-.40625-.921875-.921875zm0 0" fill="#212121"/></svg>

<?xml version="1.0" encoding="UTF-8"?>
<svg xmlns="http://www.w3.org/2000/svg" xmlns:xlink="http://www.w3.org/1999/xlink" width="24px" height="24px" viewBox="0 0 24 24" version="1.1">
<defs>
<linearGradient id="linear0" gradientUnits="userSpaceOnUse" x1="254" y1="233.5" x2="254" y2="254.666672" gradientTransform="matrix(0.0468795,0,0,0.0468795,-0.0000028613,9.656451)">
<stop offset="0" style="stop-color:rgb(0%,0%,0%);stop-opacity:0.27451;"/>
<stop offset="1" style="stop-color:rgb(0%,0%,0%);stop-opacity:0;"/>
</linearGradient>
<radialGradient id="radial0" gradientUnits="userSpaceOnUse" cx="450.908936" cy="189.579361" fx="450.908936" fy="189.579361" r="21.166656" gradientTransform="matrix(0.000000130628,-0.0585994,-0.105479,-0.0000000761539,38.601845,47.273862)">
<stop offset="0" style="stop-color:rgb(0%,0%,0%);stop-opacity:0.313726;"/>
<stop offset="0.222222" style="stop-color:rgb(0%,0%,0%);stop-opacity:0.27451;"/>
<stop offset="1" style="stop-color:rgb(0%,0%,0%);stop-opacity:0;"/>
</radialGradient>
<radialGradient id="radial1" gradientUnits="userSpaceOnUse" cx="450.908936" cy="189.579361" fx="450.908936" fy="189.579361" r="21.166656" gradientTransform="matrix(-0.000000130628,0.0585994,0.105479,0.0000000761539,-14.787073,-6.068247)">
<stop offset="0" style="stop-color:rgb(0%,0%,0%);stop-opacity:0.313726;"/>
<stop offset="0.222222" style="stop-color:rgb(0%,0%,0%);stop-opacity:0.27451;"/>
<stop offset="1" style="stop-color:rgb(0%,0%,0%);stop-opacity:0;"/>
</radialGradient>
<radialGradient id="radial2" gradientUnits="userSpaceOnUse" cx="450.908936" cy="189.579361" fx="450.908936" fy="189.579361" r="21.166656" gradientTransform="matrix(-0.000000130628,-0.0585994,0.105479,-0.0000000761539,-14.787073,47.273862)">
<stop offset="0" style="stop-color:rgb(0%,0%,0%);stop-opacity:0.313726;"/>
<stop offset="0.222222" style="stop-color:rgb(0%,0%,0%);stop-opacity:0.27451;"/>
<stop offset="1" style="stop-color:rgb(0%,0%,0%);stop-opacity:0;"/>
</radialGradient>
<radialGradient id="radial3" gradientUnits="userSpaceOnUse" cx="450.908936" cy="189.579361" fx="450.908936" fy="189.579361" r="21.166656" gradientTransform="matrix(0.000000130628,0.0585994,-0.105479,0.0000000761539,38.601843,-6.068247)">
<stop offset="0" style="stop-color:rgb(0%,0%,0%);stop-opacity:0.313726;"/>
<stop offset="0.222222" style="stop-color:rgb(0%,0%,0%);stop-opacity:0.27451;"/>
<stop offset="1" style="stop-color:rgb(0%,0%,0%);stop-opacity:0;"/>
</radialGradient>
<linearGradient id="linear1" gradientUnits="userSpaceOnUse" x1="127" y1="-31.083334" x2="127" y2="-158.083328" gradientTransform="matrix(0.0468795,0,0,0.0468795,0,10.079086)">
<stop offset="0" style="stop-color:rgb(87.843138%,87.843138%,87.843138%);stop-opacity:1;"/>
<stop offset="1" style="stop-color:rgb(93.333334%,93.333334%,93.333334%);stop-opacity:1;"/>
</linearGradient>
<linearGradient id="linear2" gradientUnits="userSpaceOnUse" x1="381" y1="-31.083334" x2="381" y2="-158.083328" gradientTransform="matrix(0.0468795,0,0,0.0468795,0,10.079086)">
<stop offset="0" style="stop-color:rgb(61.176473%,80.000001%,39.607844%);stop-opacity:1;"/>
<stop offset="1" style="stop-color:rgb(68.235296%,83.529413%,50.588238%);stop-opacity:1;"/>
</linearGradient>
<linearGradient id="linear3" gradientUnits="userSpaceOnUse" x1="127" y1="222.916672" x2="127" y2="95.916664" gradientTransform="matrix(0.0468795,0,0,0.0468795,0,10.079086)">
<stop offset="0" style="stop-color:rgb(87.843138%,87.843138%,87.843138%);stop-opacity:1;"/>
<stop offset="1" style="stop-color:rgb(93.333334%,93.333334%,93.333334%);stop-opacity:1;"/>
</linearGradient>
<linearGradient id="linear4" gradientUnits="userSpaceOnUse" x1="127" y1="95.916664" x2="127" y2="-31.083334" gradientTransform="matrix(0.0468795,0,0,0.0468795,0,10.079087)">
<stop offset="0" style="stop-color:rgb(87.843138%,87.843138%,87.843138%);stop-opacity:1;"/>
<stop offset="1" style="stop-color:rgb(93.333334%,93.333334%,93.333334%);stop-opacity:1;"/>
</linearGradient>
<linearGradient id="linear5" gradientUnits="userSpaceOnUse" x1="381" y1="222.916672" x2="381" y2="95.916664" gradientTransform="matrix(0.0468795,0,0,0.0468795,0,10.079086)">
<stop offset="0" style="stop-color:rgb(100%,43.921569%,26.274511%);stop-opacity:1;"/>
<stop offset="1" style="stop-color:rgb(100%,54.11765%,39.607844%);stop-opacity:1;"/>
</linearGradient>
<linearGradient id="linear6" gradientUnits="userSpaceOnUse" x1="381" y1="95.916664" x2="381" y2="-31.083334" gradientTransform="matrix(0.0468795,0,0,0.0468795,0,10.079087)">
<stop offset="0" style="stop-color:rgb(16.078432%,71.372551%,96.470588%);stop-opacity:1;"/>
<stop offset="1" style="stop-color:rgb(30.980393%,76.47059%,96.862745%);stop-opacity:1;"/>
</linearGradient>
<linearGradient id="linear7" gradientUnits="userSpaceOnUse" x1="254" y1="95.916664" x2="254" y2="-31.083334" gradientTransform="matrix(0.0468795,0,0,0.0468795,0,10.079087)">
<stop offset="0" style="stop-color:rgb(100%,65.490198%,14.901961%);stop-opacity:1;"/>
<stop offset="1" style="stop-color:rgb(100%,71.764708%,30.19608%);stop-opacity:1;"/>
</linearGradient>
<linearGradient id="linear8" gradientUnits="userSpaceOnUse" x1="254" y1="222.916672" x2="254" y2="95.916664" gradientTransform="matrix(0.0468795,0,0,0.0468795,0,10.079087)">
<stop offset="0" style="stop-color:rgb(93.725491%,32.549021%,31.37255%);stop-opacity:1;"/>
<stop offset="1" style="stop-color:rgb(89.803922%,45.09804%,45.09804%);stop-opacity:1;"/>
</linearGradient>
<linearGradient id="linear9" gradientUnits="userSpaceOnUse" x1="254" y1="-31.083334" x2="254" y2="-158.083328" gradientTransform="matrix(0.0468795,0,0,0.0468795,0,10.079087)">
<stop offset="0" style="stop-color:rgb(87.843138%,87.843138%,87.843138%);stop-opacity:1;"/>
<stop offset="1" style="stop-color:rgb(93.333334%,93.333334%,93.333334%);stop-opacity:1;"/>
</linearGradient>
</defs>
<g id="surface1">
<path style=" stroke:none;fill-rule:nonzero;fill:url(#linear0);" d="M 4.960938 20.566406 L 18.851562 20.566406 L 18.851562 21.632812 L 4.960938 21.632812 Z M 4.960938 20.566406 "/>
<path style=" stroke:none;fill-rule:nonzero;fill:url(#radial0);" d="M 18.851562 20.601562 L 20.839844 20.601562 L 20.839844 19.609375 L 18.851562 19.609375 Z M 18.851562 20.601562 "/>
<path style=" stroke:none;fill-rule:nonzero;fill:url(#radial1);" d="M 4.960938 20.601562 L 2.976562 20.601562 L 2.976562 21.59375 L 4.960938 21.59375 Z M 4.960938 20.601562 "/>
<path style=" stroke:none;fill-rule:nonzero;fill:url(#radial2);" d="M 4.960938 20.601562 L 2.976562 20.601562 L 2.976562 19.609375 L 4.960938 19.609375 Z M 4.960938 20.601562 "/>
<path style=" stroke:none;fill-rule:nonzero;fill:url(#radial3);" d="M 18.851562 20.601562 L 20.839844 20.601562 L 20.839844 21.59375 L 18.851562 21.59375 Z M 18.851562 20.601562 "/>
<path style=" stroke:none;fill-rule:nonzero;fill:url(#linear1);" d="M 3.96875 2.667969 C 3.417969 2.667969 2.976562 3.109375 2.976562 3.660156 L 2.976562 8.621094 L 8.929688 8.621094 L 8.929688 2.667969 Z M 3.96875 2.667969 "/>
<path style=" stroke:none;fill-rule:nonzero;fill:url(#linear2);" d="M 14.882812 2.667969 L 14.882812 8.621094 L 20.839844 8.621094 L 20.839844 3.660156 C 20.839844 3.109375 20.394531 2.667969 19.84375 2.667969 Z M 14.882812 2.667969 "/>
<path style=" stroke:none;fill-rule:nonzero;fill:url(#linear3);" d="M 2.976562 14.574219 L 2.976562 19.535156 C 2.976562 20.085938 3.417969 20.527344 3.96875 20.527344 L 8.929688 20.527344 L 8.929688 14.574219 Z M 2.976562 14.574219 "/>
<path style=" stroke:none;fill-rule:nonzero;fill:url(#linear4);" d="M 2.976562 8.621094 L 8.929688 8.621094 L 8.929688 14.574219 L 2.976562 14.574219 Z M 2.976562 8.621094 "/>
<path style=" stroke:none;fill-rule:nonzero;fill:url(#linear5);" d="M 14.882812 14.574219 L 14.882812 20.527344 L 19.84375 20.527344 C 20.394531 20.527344 20.839844 20.085938 20.839844 19.535156 L 20.839844 14.574219 Z M 14.882812 14.574219 "/>
<path style=" stroke:none;fill-rule:nonzero;fill:url(#linear6);" d="M 14.882812 8.621094 L 20.839844 8.621094 L 20.839844 14.574219 L 14.882812 14.574219 Z M 14.882812 8.621094 "/>
<path style=" stroke:none;fill-rule:nonzero;fill:url(#linear7);" d="M 8.929688 8.621094 L 14.882812 8.621094 L 14.882812 14.574219 L 8.929688 14.574219 Z M 8.929688 8.621094 "/>
<path style=" stroke:none;fill-rule:nonzero;fill:url(#linear8);" d="M 8.929688 14.574219 L 14.882812 14.574219 L 14.882812 20.53125 L 8.929688 20.53125 Z M 8.929688 14.574219 "/>
<path style=" stroke:none;fill-rule:nonzero;fill:url(#linear9);" d="M 8.929688 2.667969 L 14.882812 2.667969 L 14.882812 8.621094 L 8.929688 8.621094 Z M 8.929688 2.667969 "/>
<path style=" stroke:none;fill-rule:nonzero;fill:rgb(100%,100%,100%);fill-opacity:0.784314;" d="M 3.96875 2.667969 C 3.417969 2.667969 2.976562 3.109375 2.976562 3.660156 L 2.976562 3.796875 C 2.976562 3.246094 3.417969 2.804688 3.96875 2.804688 L 19.84375 2.804688 C 20.394531 2.804688 20.839844 3.246094 20.839844 3.796875 L 20.839844 3.660156 C 20.839844 3.109375 20.394531 2.667969 19.84375 2.667969 Z M 3.96875 2.667969 "/>
<path style=" stroke:none;fill-rule:nonzero;fill:rgb(0%,0%,0%);fill-opacity:0.235294;" d="M 3.96875 20.539062 C 3.417969 20.539062 2.976562 20.097656 2.976562 19.546875 L 2.976562 19.414062 C 2.976562 19.960938 3.417969 20.40625 3.96875 20.40625 L 19.84375 20.40625 C 20.394531 20.40625 20.839844 19.960938 20.839844 19.414062 L 20.839844 19.546875 C 20.839844 20.097656 20.394531 20.539062 19.84375 20.539062 Z M 3.96875 20.539062 "/>
<path style=" stroke:none;fill-rule:nonzero;fill:rgb(100%,100%,100%);fill-opacity:1;" d="M 2.976562 8.621094 L 2.976562 8.871094 L 8.929688 8.871094 L 8.929688 8.621094 Z M 2.976562 8.621094 "/>
<path style=" stroke:none;fill-rule:nonzero;fill:rgb(100%,100%,100%);fill-opacity:1;" d="M 3.96875 2.667969 C 3.417969 2.667969 2.976562 3.109375 2.976562 3.660156 L 2.976562 3.910156 C 2.976562 3.359375 3.417969 2.917969 3.96875 2.917969 L 8.929688 2.917969 L 8.929688 2.667969 Z M 3.96875 2.667969 "/>
<path style=" stroke:none;fill-rule:nonzero;fill:rgb(100%,100%,100%);fill-opacity:0.588235;" d="M 14.882812 2.667969 L 14.882812 2.917969 L 19.84375 2.917969 C 20.394531 2.917969 20.839844 3.359375 20.839844 3.910156 L 20.839844 3.660156 C 20.839844 3.109375 20.394531 2.667969 19.84375 2.667969 Z M 14.882812 2.667969 "/>
<path style=" stroke:none;fill-rule:nonzero;fill:rgb(100%,100%,100%);fill-opacity:0.980645;" d="M 2.976562 14.574219 L 2.976562 14.824219 L 8.929688 14.824219 L 8.929688 14.574219 Z M 2.976562 14.574219 "/>
<path style=" stroke:none;fill-rule:nonzero;fill:rgb(100%,100%,100%);fill-opacity:0.392157;" d="M 14.882812 14.574219 L 14.882812 14.824219 L 20.839844 14.824219 L 20.839844 14.574219 Z M 14.882812 14.574219 "/>
<path style=" stroke:none;fill-rule:nonzero;fill:rgb(100%,100%,100%);fill-opacity:0.392157;" d="M 14.882812 8.621094 L 14.882812 8.871094 L 20.839844 8.871094 L 20.839844 8.621094 Z M 14.882812 8.621094 "/>
<path style=" stroke:none;fill-rule:nonzero;fill:rgb(100%,100%,100%);fill-opacity:0.784314;" d="M 8.929688 8.621094 L 8.929688 8.871094 L 14.882812 8.871094 L 14.882812 8.621094 Z M 8.929688 8.621094 "/>
<path style=" stroke:none;fill-rule:nonzero;fill:rgb(100%,100%,100%);fill-opacity:0.392157;" d="M 8.929688 14.574219 L 8.929688 14.824219 L 14.882812 14.824219 L 14.882812 14.574219 Z M 8.929688 14.574219 "/>
<path style=" stroke:none;fill-rule:nonzero;fill:rgb(100%,100%,100%);fill-opacity:1;" d="M 8.929688 2.667969 L 8.929688 2.917969 L 14.882812 2.917969 L 14.882812 2.667969 Z M 8.929688 2.667969 "/>
<path style=" stroke:none;fill-rule:nonzero;fill:rgb(0%,0%,0%);fill-opacity:0.235294;" d="M 2.976562 14.328125 L 2.976562 14.574219 L 8.929688 14.574219 L 8.929688 14.328125 Z M 2.976562 14.328125 "/>
<path style=" stroke:none;fill-rule:nonzero;fill:rgb(0%,0%,0%);fill-opacity:0.235294;" d="M 2.976562 8.375 L 2.976562 8.621094 L 8.929688 8.621094 L 8.929688 8.375 Z M 2.976562 8.375 "/>
<path style=" stroke:none;fill-rule:nonzero;fill:rgb(0%,0%,0%);fill-opacity:0.235294;" d="M 14.882812 8.375 L 14.882812 8.621094 L 20.839844 8.621094 L 20.839844 8.375 Z M 14.882812 8.375 "/>
<path style=" stroke:none;fill-rule:nonzero;fill:rgb(0%,0%,0%);fill-opacity:0.235294;" d="M 2.976562 19.289062 L 2.976562 19.535156 C 2.976562 20.085938 3.417969 20.527344 3.96875 20.527344 L 8.929688 20.527344 L 8.929688 20.28125 L 3.96875 20.28125 C 3.417969 20.28125 2.976562 19.839844 2.976562 19.289062 Z M 2.976562 19.289062 "/>
<path style=" stroke:none;fill-rule:nonzero;fill:rgb(0%,0%,0%);fill-opacity:0.235294;" d="M 20.839844 19.289062 C 20.839844 19.839844 20.394531 20.28125 19.84375 20.28125 L 14.882812 20.28125 L 14.882812 20.527344 L 19.84375 20.527344 C 20.394531 20.527344 20.839844 20.085938 20.839844 19.535156 Z M 20.839844 19.289062 "/>
<path style=" stroke:none;fill-rule:nonzero;fill:rgb(0%,0%,0%);fill-opacity:0.235294;" d="M 14.882812 14.328125 L 14.882812 14.574219 L 20.839844 14.574219 L 20.839844 14.328125 Z M 14.882812 14.328125 "/>
<path style=" stroke:none;fill-rule:nonzero;fill:rgb(0%,0%,0%);fill-opacity:0.235294;" d="M 8.929688 14.328125 L 8.929688 14.574219 L 14.882812 14.574219 L 14.882812 14.328125 Z M 8.929688 14.328125 "/>
<path style=" stroke:none;fill-rule:nonzero;fill:rgb(0%,0%,0%);fill-opacity:0.235294;" d="M 8.929688 20.28125 L 8.929688 20.527344 L 14.882812 20.527344 L 14.882812 20.28125 Z M 8.929688 20.28125 "/>
<path style=" stroke:none;fill-rule:nonzero;fill:rgb(0%,0%,0%);fill-opacity:0.235294;" d="M 8.929688 8.375 L 8.929688 8.621094 L 14.882812 8.621094 L 14.882812 8.375 Z M 8.929688 8.375 "/>
<path style=" stroke:none;fill-rule:nonzero;fill:rgb(12.941177%,12.941177%,12.941177%);fill-opacity:1;" d="M 3.96875 2.597656 C 3.382812 2.597656 2.90625 3.074219 2.90625 3.660156 L 2.90625 19.535156 C 2.90625 20.125 3.382812 20.601562 3.96875 20.601562 L 9 20.601562 L 9 20.597656 L 19.84375 20.597656 C 20.433594 20.597656 20.910156 20.125 20.910156 19.535156 L 20.910156 3.660156 C 20.910156 3.074219 20.433594 2.597656 19.84375 2.597656 Z M 9 2.738281 L 14.8125 2.738281 L 14.8125 8.550781 L 9 8.550781 Z M 3.96875 2.738281 L 8.859375 2.738281 L 8.859375 8.550781 L 3.046875 8.550781 L 3.046875 3.660156 C 3.046875 3.148438 3.457031 2.738281 3.96875 2.738281 Z M 14.953125 2.738281 L 19.84375 2.738281 C 20.359375 2.738281 20.769531 3.148438 20.769531 3.660156 L 20.769531 8.550781 L 14.953125 8.550781 Z M 9 8.691406 L 14.8125 8.691406 L 14.8125 14.503906 L 9 14.503906 Z M 3.046875 8.691406 L 8.859375 8.691406 L 8.859375 14.503906 L 3.046875 14.503906 Z M 14.953125 8.691406 L 20.769531 8.691406 L 20.769531 14.503906 L 14.953125 14.503906 Z M 9 14.644531 L 14.8125 14.644531 L 14.8125 20.457031 L 9 20.457031 Z M 14.953125 14.644531 L 20.769531 14.644531 L 20.769531 19.535156 C 20.769531 20.050781 20.359375 20.457031 19.84375 20.457031 L 14.953125 20.457031 Z M 3.046875 14.644531 L 8.859375 14.644531 L 8.859375 20.457031 L 3.96875 20.457031 C 3.457031 20.457031 3.046875 20.050781 3.046875 19.535156 Z M 3.046875 14.644531 "/>
</g>
</svg>
